X: 17
M: C
L: 1/8
K: Bb
{c}B>A |\
d>fB>d c>eA>c | B>ba>g f>ed>c |
d>fB>d c>eA>c | {c}BABc B2 :|
|: DC |\
{g}f>ef>g f>ec>A | {c}B>AB>c B2 H:|

